images/SOUL.svg

<svg height="250" viewBox="0 0 250 250" width="250" xmlns="http://www.w3.org/2000/svg"><path d="m248.226562 16.503906c4.007813-12.492187.617188-20.050781-14.960937-14.808594l-60.917969 24.523438c16.195313-22.054688-13.265625-21.285156-33.777344-14.652344-39.480468 12.492188-82.046874 32.386719-104.71875 54.597656-21.128906 19.738282-34.082031 47.964844-33.621093 79.425782.925781 58.140625 49.042969 105.027344 107.1875 104.410156 25.140625-.152344 48.273437-9.253906 66.472656-24.058594 30.382813-22.363281 49.503906-57.0625 62.152344-91.148437 9.253906-24.675781 8.171875-53.363281-13.109375-37.324219zm0 0" fill="#d1dadf"/><g stroke-miterlimit="10" stroke-width="4" transform="matrix(1.542258 0 0 1.542258 .231341 0)"><path d="m142.700629 26.70091c1.998389-6.301637.298872-10.100856-7.499658-7.499658l-40.00071 16.098557c8.598899-9.300488 2.900071-14.399039-7.400878-11.200097-19.798996 6.299105-41.19873 16.199869-52.500139 27.399967-10.599821 9.900764-17.099018 24.099711-16.898926 39.800617.498964 29.099484 24.598676 52.598919 53.799472 52.398827 12.600743-.09878 24.201025-4.599588 33.30142-12.099246 15.199409-11.200097 23.9984-29.000704 31.199186-45.699538 3.799219-8.900303 1.000461-16.901458-9.59936-8.900303l-3.801752 2.401106c.701589-2.000922 19.401345-52.700232 19.401345-52.700232zm0 0" fill="#b1cdea" stroke="#41423f" stroke-linecap="round" stroke-linejoin="round"/><path d="m58.000843 106.400924c2.99885 6.998162 18.998627 9.399268 24.699988 0" fill="none" stroke="#3f403f" stroke-linecap="round"/><path d="m38.700811 102.900577h12.49943c6.699289-2.499886 11.498969-9.001616 11.498969-16.701366 0-9.799452-7.998622-17.798074-17.798074-17.798074-9.801985 0-17.800607 7.998622-17.800607 17.798074.09878 7.69975 4.89846 14.20148 11.600282 16.701366zm0 0" fill="#fff" stroke="#40413f"/><path d="m91.900007 102.900577h12.49943c6.701822-2.499886 11.501502-9.001616 11.501502-16.701366 0-9.799452-8.001155-17.798074-17.800607-17.798074s-17.800607 7.998622-17.800607 17.798074c0 7.69975 4.79968 14.20148 11.600282 16.701366zm0 0" fill="#fff" stroke="#40413f"/></g><path d="m171.421875 132.941406c0 10.988282-8.90625 19.894532-19.894531 19.894532-10.988282 0-19.894532-8.90625-19.894532-19.894532 0-10.988281 8.90625-19.894531 19.894532-19.894531 10.988281 0 19.894531 8.90625 19.894531 19.894531zm0 0" fill="#7064ac"/><path d="m168.183594 132.941406c0 9.199219-7.457032 16.65625-16.65625 16.65625-9.199219 0-16.65625-7.457031-16.65625-16.65625 0-9.199218 7.457031-16.65625 16.65625-16.65625 9.199218 0 16.65625 7.457032 16.65625 16.65625zm0 0" fill="#40413f"/><path d="m159.855469 124.613281c0 4.601563-3.730469 8.328125-8.328125 8.328125-4.601563 0-8.328125-3.726562-8.328125-8.328125 0-4.597656 3.726562-8.328125 8.328125-8.328125 4.597656 0 8.328125 3.730469 8.328125 8.328125zm0 0" fill="#fff"/><path d="m89.527344 132.941406c0 10.988282-8.90625 19.894532-19.894532 19.894532-10.988281 0-19.894531-8.90625-19.894531-19.894532 0-10.988281 8.90625-19.894531 19.894531-19.894531 10.988282 0 19.894532 8.90625 19.894532 19.894531zm0 0" fill="#7064ac"/><path d="m86.289062 132.941406c0 9.199219-7.457031 16.65625-16.65625 16.65625-9.199218 0-16.65625-7.457031-16.65625-16.65625 0-9.199218 7.457032-16.65625 16.65625-16.65625 9.199219 0 16.65625 7.457032 16.65625 16.65625zm0 0" fill="#40413f"/><path d="m77.960938 124.613281c0 4.601563-3.726563 8.328125-8.328126 8.328125-4.597656 0-8.328124-3.726562-8.328124-8.328125 0-4.597656 3.730468-8.328125 8.328124-8.328125 4.601563 0 8.328126 3.730469 8.328126 8.328125zm0 0" fill="#fff"/></svg>

<svg xmlns="http://www.w3.org/2000/svg" xmlns:xlink="http://www.w3.org/1999/xlink" width="250px" height="250px" viewBox="0 0 250 250" version="1.1">
<g id="surface1">
<path style=" stroke:none;fill-rule:nonzero;fill:rgb(81.960785%,85.490197%,87.450981%);fill-opacity:1;" d="M 248.226562 16.503906 C 252.234375 4.011719 248.84375 -3.546875 233.265625 1.695312 L 172.347656 26.21875 C 188.542969 4.164062 159.082031 4.933594 138.570312 11.566406 C 99.089844 24.058594 56.523438 43.953125 33.851562 66.164062 C 12.722656 85.902344 -0.230469 114.128906 0.230469 145.589844 C 1.15625 203.730469 49.273438 250.617188 107.417969 250 C 132.558594 249.847656 155.691406 240.746094 173.890625 225.941406 C 204.273438 203.578125 223.394531 168.878906 236.042969 134.792969 C 245.296875 110.117188 244.214844 81.429688 222.933594 97.46875 Z M 248.226562 16.503906 "/>
<path style="fill-rule:nonzero;fill:rgb(69.411767%,80.392158%,91.764706%);fill-opacity:1;stroke-width:4;stroke-linecap:round;stroke-linejoin:round;stroke:rgb(25.490198%,25.882354%,24.705882%);stroke-opacity:1;stroke-miterlimit:10;" d="M 142.700629 26.70091 C 144.699018 20.399273 142.999501 16.600054 135.200971 19.201252 L 95.200261 35.299809 C 103.79916 25.999321 98.100332 20.90077 87.799383 24.099712 C 68.000387 30.398817 46.600653 40.299581 35.299244 51.499679 C 24.699423 61.400443 18.200226 75.59939 18.400318 91.300296 C 18.899282 120.39978 42.998994 143.899215 72.19979 143.699123 C 84.800533 143.600343 96.400815 139.099535 105.50121 131.599877 C 120.700619 120.39978 129.49961 102.599173 136.700396 85.900339 C 140.499615 77.000036 137.700857 68.998881 127.101036 77.000036 L 123.299284 79.401142 C 124.000873 77.40022 142.700629 26.70091 142.700629 26.70091 Z M 142.700629 26.70091 " transform="matrix(1.542258,0,0,1.542258,0.231341,0)"/>
<path style="fill:none;stroke-width:4;stroke-linecap:round;stroke-linejoin:miter;stroke:rgb(24.705882%,25.098041%,24.705882%);stroke-opacity:1;stroke-miterlimit:10;" d="M 58.000843 106.400924 C 60.999693 113.399086 76.99947 115.800192 82.700831 106.400924 " transform="matrix(1.542258,0,0,1.542258,0.231341,0)"/>
<path style="fill-rule:nonzero;fill:rgb(100%,100%,100%);fill-opacity:1;stroke-width:4;stroke-linecap:butt;stroke-linejoin:miter;stroke:rgb(25.098041%,25.490198%,24.705882%);stroke-opacity:1;stroke-miterlimit:10;" d="M 38.700811 102.900577 L 51.200241 102.900577 C 57.89953 100.400691 62.69921 93.898961 62.69921 86.199211 C 62.69921 76.399759 54.700588 68.401137 44.901136 68.401137 C 35.099151 68.401137 27.100529 76.399759 27.100529 86.199211 C 27.199309 93.898961 31.998989 100.400691 38.700811 102.900577 Z M 38.700811 102.900577 " transform="matrix(1.542258,0,0,1.542258,0.231341,0)"/>
<path style="fill-rule:nonzero;fill:rgb(100%,100%,100%);fill-opacity:1;stroke-width:4;stroke-linecap:butt;stroke-linejoin:miter;stroke:rgb(25.098041%,25.490198%,24.705882%);stroke-opacity:1;stroke-miterlimit:10;" d="M 91.900007 102.900577 L 104.399437 102.900577 C 111.101259 100.400691 115.900939 93.898961 115.900939 86.199211 C 115.900939 76.399759 107.899784 68.401137 98.100332 68.401137 C 88.30088 68.401137 80.299725 76.399759 80.299725 86.199211 C 80.299725 93.898961 85.099405 100.400691 91.900007 102.900577 Z M 91.900007 102.900577 " transform="matrix(1.542258,0,0,1.542258,0.231341,0)"/>
<path style=" stroke:none;fill-rule:nonzero;fill:rgb(43.921569%,39.215687%,67.450982%);fill-opacity:1;" d="M 171.421875 132.941406 C 171.421875 143.929688 162.515625 152.835938 151.527344 152.835938 C 140.539062 152.835938 131.632812 143.929688 131.632812 132.941406 C 131.632812 121.953125 140.539062 113.046875 151.527344 113.046875 C 162.515625 113.046875 171.421875 121.953125 171.421875 132.941406 Z M 171.421875 132.941406 "/>
<path style=" stroke:none;fill-rule:nonzero;fill:rgb(25.098041%,25.490198%,24.705882%);fill-opacity:1;" d="M 168.183594 132.941406 C 168.183594 142.140625 160.726562 149.597656 151.527344 149.597656 C 142.328125 149.597656 134.871094 142.140625 134.871094 132.941406 C 134.871094 123.742188 142.328125 116.285156 151.527344 116.285156 C 160.726562 116.285156 168.183594 123.742188 168.183594 132.941406 Z M 168.183594 132.941406 "/>
<path style=" stroke:none;fill-rule:nonzero;fill:rgb(100%,100%,100%);fill-opacity:1;" d="M 159.855469 124.613281 C 159.855469 129.214844 156.125 132.941406 151.527344 132.941406 C 146.925781 132.941406 143.199219 129.214844 143.199219 124.613281 C 143.199219 120.015625 146.925781 116.285156 151.527344 116.285156 C 156.125 116.285156 159.855469 120.015625 159.855469 124.613281 Z M 159.855469 124.613281 "/>
<path style=" stroke:none;fill-rule:nonzero;fill:rgb(43.921569%,39.215687%,67.450982%);fill-opacity:1;" d="M 89.527344 132.941406 C 89.527344 143.929688 80.621094 152.835938 69.632812 152.835938 C 58.644531 152.835938 49.738281 143.929688 49.738281 132.941406 C 49.738281 121.953125 58.644531 113.046875 69.632812 113.046875 C 80.621094 113.046875 89.527344 121.953125 89.527344 132.941406 Z M 89.527344 132.941406 "/>
<path style=" stroke:none;fill-rule:nonzero;fill:rgb(25.098041%,25.490198%,24.705882%);fill-opacity:1;" d="M 86.289062 132.941406 C 86.289062 142.140625 78.832031 149.597656 69.632812 149.597656 C 60.433594 149.597656 52.976562 142.140625 52.976562 132.941406 C 52.976562 123.742188 60.433594 116.285156 69.632812 116.285156 C 78.832031 116.285156 86.289062 123.742188 86.289062 132.941406 Z M 86.289062 132.941406 "/>
<path style=" stroke:none;fill-rule:nonzero;fill:rgb(100%,100%,100%);fill-opacity:1;" d="M 77.960938 124.613281 C 77.960938 129.214844 74.234375 132.941406 69.632812 132.941406 C 65.035156 132.941406 61.304688 129.214844 61.304688 124.613281 C 61.304688 120.015625 65.035156 116.285156 69.632812 116.285156 C 74.234375 116.285156 77.960938 120.015625 77.960938 124.613281 Z M 77.960938 124.613281 "/>
</g>
</svg>
